projects/ccf-eui/src/assets/icons/organ-icons/organ-icon-ovaries.svg

<svg width="64" height="64" viewBox="0 0 64 64" fill="currentColor" xmlns="http://www.w3.org/2000/svg">
<g clip-path="url(#clip0_1795_326)">
<path d="M52.9919 17.2373C48.5546 17.2373 45.1413 18.176 41.2799 18.0693C37.4186 17.9627 35.6479 15.1467 31.9999 15.7227C28.3519 15.1467 26.4959 17.856 22.7199 18.0693C18.9439 18.2827 15.4453 17.2373 11.0079 17.2373C5.20528 17.2373 2.47461 21.504 2.47461 23.872C2.47461 26.24 3.26394 30.272 9.68528 31.8293L10.6239 32C10.2924 31.7505 10.0221 31.4286 9.83361 31.059C9.64508 30.6893 9.54328 30.2816 9.53594 29.8667C9.54354 29.1785 9.81903 28.5204 10.3039 28.032C9.45275 27.8984 8.67231 27.4793 8.0908 26.8435C7.50929 26.2077 7.16129 25.393 7.10394 24.5333C6.95461 21.9093 9.89861 20.992 11.1573 20.9707C14.3518 21.0341 17.5261 21.4927 20.6079 22.336C23.0826 23.296 28.3946 33.3227 28.4586 37.696C28.5226 42.0693 28.6719 50.9867 28.6719 50.9867H35.3279C35.3279 50.9867 35.4559 42.0693 35.5413 37.696C35.6266 33.3227 40.9173 23.296 43.3919 22.336C46.4738 21.4927 49.6481 21.0341 52.8426 20.9707C54.1013 20.9707 57.1093 21.9093 56.8959 24.5333C56.8413 25.3736 56.5104 26.1723 55.9548 26.805C55.3992 27.4378 54.6501 27.8691 53.8239 28.032C54.3148 28.5182 54.5978 29.176 54.6133 29.8667C54.6003 30.2827 54.4939 30.6905 54.3018 31.0598C54.1098 31.4291 53.8371 31.7505 53.5039 32L54.4213 31.8293C60.8213 30.2933 61.6319 26.112 61.6319 23.872C61.6319 21.632 58.7946 17.2373 52.9919 17.2373Z" />
<path d="M21.3334 27.9253C20.74 28.1059 20.1339 28.2413 19.5201 28.3307C18.8374 28.3307 18.6241 28.1387 18.6241 28.1387C18.1514 27.6418 17.5768 27.253 16.9398 26.9989C16.3028 26.7448 15.6183 26.6315 14.9334 26.6667C12.5867 26.6667 10.6667 28.096 10.6667 29.8667C10.6667 31.6373 12.5867 33.0667 14.9334 33.0667C15.8809 33.1782 16.8366 32.941 17.6218 32.3991C18.4071 31.8573 18.9681 31.0481 19.2001 30.1227C19.2001 30.1227 19.2001 29.696 19.8187 29.376C20.3606 29.1456 20.9256 28.9739 21.5041 28.864L21.3334 27.9253Z" />
<path d="M42.9013 27.9253C43.5015 28.1076 44.1148 28.2431 44.7359 28.3307C45.4186 28.3307 45.6106 28.1387 45.6106 28.1387C46.0684 27.6446 46.6276 27.2553 47.2499 26.9976C47.8722 26.7398 48.5429 26.6196 49.2159 26.6453C51.5626 26.6453 53.4826 28.0747 53.4826 29.8453C53.4826 31.616 51.5626 33.0453 49.2159 33.0453C48.2699 33.1477 47.3186 32.9068 46.5354 32.3664C45.7522 31.826 45.1893 31.0221 44.9493 30.1013C44.9493 30.1013 44.9493 29.6747 44.3093 29.3547C43.7754 29.1227 43.2172 28.9509 42.6453 28.8427L42.9013 27.9253Z" />
</g>
<defs>
<clipPath id="clip0_1795_326">
<rect width="64" height="64" />
</clipPath>
</defs>
</svg>

<svg xmlns="http://www.w3.org/2000/svg" width="64" height="64" fill="currentColor" viewBox="0 0 64 64"><g clip-path="url(#a)"><path d="M52.992 17.237c-4.437 0-7.85.939-11.712.832s-5.632-2.922-9.28-2.346c-3.648-.576-5.504 2.133-9.28 2.346s-7.275-.832-11.712-.832c-5.803 0-8.533 4.267-8.533 6.635s.789 6.4 7.21 7.957l.939.171a2.73 2.73 0 0 1-1.088-2.133 2.65 2.65 0 0 1 .768-1.835 3.8 3.8 0 0 1-3.2-3.499c-.15-2.624 2.795-3.541 4.053-3.562 3.195.063 6.37.522 9.45 1.365 2.476.96 7.788 10.987 7.852 15.36s.213 13.29.213 13.29h6.656s.128-8.917.213-13.29c.086-4.373 5.376-14.4 7.85-15.36a38.7 38.7 0 0 1 9.452-1.365c1.258 0 4.266.938 4.053 3.562a3.82 3.82 0 0 1-3.072 3.499c.49.486.774 1.144.79 1.835A2.77 2.77 0 0 1 53.503 32l.917-.17c6.4-1.537 7.21-5.718 7.21-7.958s-2.836-6.635-8.64-6.635"/><path d="M21.333 27.925q-.892.27-1.813.406c-.683 0-.896-.192-.896-.192a4.76 4.76 0 0 0-3.69-1.472c-2.347 0-4.267 1.429-4.267 3.2 0 1.77 1.92 3.2 4.266 3.2a3.925 3.925 0 0 0 4.267-2.944s0-.427.619-.747a8.2 8.2 0 0 1 1.685-.512zM42.901 27.925q.902.274 1.835.406c.683 0 .875-.192.875-.192a4.67 4.67 0 0 1 3.605-1.494c2.347 0 4.267 1.43 4.267 3.2s-1.92 3.2-4.267 3.2a3.97 3.97 0 0 1-4.267-2.944s0-.426-.64-.746a7.8 7.8 0 0 0-1.664-.512z"/></g><defs><clipPath id="a"><path d="M0 0h64v64H0z"/></clipPath></defs></svg>
